!!!OTL: 1024. Regenliedchen.
!!!ARE: Europa, Mitteleuropa, Deutschland, Ruhrgebiet, Kettwig
!!!SCT: K1024
!!!TXL: @@NDS
!!!YEM: Copyright 1995, estate of Helmut Schaffrath.
**kern	**text
*clefG2	*
*M2/4	*
*k[f#]	*
*G:	*
=1	=1
!LO:TX:a:t=Im Sprechton.	!
{8g	Re-
8g	-gen-
8a	-Re-
8a	-gen-
=2	=2
4b/	-ſchu-
8g}	-ren1)!
{8d	te
=3	=3
8g	Möl-
8g	-lem2)
8a	op
8a	de
=4	=4
4b/	Ruh-
8g}	-ren,
{8g	te
=5	=5
8b	Kett-
8b	-wig
8a	op
8g	de
=6	=6
4b	Brög-
8b}	-gen3),
{8b	da
=7	=7
8a	dan-
8a	-ʒen
8a	all
8b/	de
=8	=8
4g	Mög-
8g}	-gen4),
{8b	wat
=9	=9
4a	Gott
8g	weit5),
8b	wat
=10	=10
4a	Gott
8g	weit,
8r}	.
=11	=11
{8dd	dat
8g	de
8g	Schûr6),
8g	wier
=12	=12
8g	ö-
8f#	-wer
4g}	geit.
==	==
!!!AGN: Kinder -, Natur -, Regen - Lied
!!!ONB: ESAC (Essen Associative Code) Database: KINDER
!!!AMT: simple duple
!!!AIN: vox
!!!EED: Helmut Schaffrath
!!!EEV: 1.0
!!Aus Kettwig an der Ruhr.
!!Erk II. 4/5, 94. Simrock 504.
!!!GTL: VI. Das Kind im Verkehr mit der Natur. C. Das Kind und die Naturerscheinungen. (Wetterliedchen)
!!@@COMMENT:"1) Regenſchauer. 2) Mühlheim a. fd. Ruhr. 3) Brücken. 4) Mücken. 5) was Gott weiß. 6) daß der Schauer vorübergeht."
!!@@END:
!!!URL-scan: https://archive.org/details/DeutschesKinderliedUndKinderspiel/page/208/mode/1up
!!!ENC: Anna Maria Matuszewska
!!!EEV: 2024/30/08
*-	*-
